src/card_system/jcb.svg

<svg viewBox="0 0 256 256" fill="none" xmlns="http://www.w3.org/2000/svg">
<path d="M0 0H256V256H0V0Z" fill="white"/>
<path d="M234.999 177.222C234.999 195.526 220.095 210.43 201.791 210.43H21.1055V78.9038C21.1055 60.5999 36.01 45.6953 54.3139 45.6953H234.999V177.222Z" fill="white"/>
<path d="M176.17 143.493H189.898C190.29 143.493 191.205 143.362 191.597 143.362C194.212 142.839 196.435 140.486 196.435 137.217C196.435 134.079 194.212 131.726 191.597 131.072C191.205 130.941 190.421 130.941 189.898 130.941H176.17V143.493Z" fill="url(#paint0_linear)"/>
<path d="M188.324 56.8086C175.25 56.8086 164.529 67.3987 164.529 80.6036V105.314H198.13C198.914 105.314 199.83 105.314 200.483 105.445C208.066 105.837 213.688 109.759 213.688 116.558C213.688 121.918 209.897 126.494 202.837 127.409V127.671C210.55 128.194 216.434 132.508 216.434 139.176C216.434 146.367 209.897 151.074 201.268 151.074H164.398V199.448H199.307C212.381 199.448 223.102 188.858 223.102 175.653V56.8086H188.324Z" fill="url(#paint1_linear)"/>
<path d="M194.735 118.124C194.735 114.986 192.513 112.894 189.898 112.502C189.636 112.502 188.983 112.371 188.59 112.371H176.17V123.876H188.59C188.983 123.876 189.767 123.876 189.898 123.746C192.513 123.353 194.735 121.262 194.735 118.124Z" fill="url(#paint2_linear)"/>
<path d="M56.793 56.8086C43.7188 56.8086 32.9979 67.3987 32.9979 80.6036V139.307C39.6658 142.575 46.5951 144.667 53.5244 144.667C61.7612 144.667 66.2064 139.699 66.2064 132.9V105.183H86.6021V132.77C86.6021 143.49 79.9343 152.25 57.3159 152.25C43.588 152.25 32.8672 149.243 32.8672 149.243V199.317H67.7753C80.8495 199.317 91.5703 188.727 91.5703 175.522V56.8086H56.793Z" fill="url(#paint3_linear)"/>
<path d="M122.561 56.8086C109.486 56.8086 98.7656 67.3987 98.7656 80.6036V111.72C104.78 106.621 115.239 103.353 132.105 104.137C141.126 104.529 150.801 107.013 150.801 107.013V117.081C145.963 114.597 140.211 112.374 132.759 111.851C119.946 110.936 112.232 117.211 112.232 128.194C112.232 139.307 119.946 145.582 132.759 144.536C140.211 144.013 145.963 141.66 150.801 139.307V149.374C150.801 149.374 141.257 151.858 132.105 152.25C115.239 153.035 104.78 149.766 98.7656 144.667V199.579H133.674C146.748 199.579 157.469 188.989 157.469 175.784V56.8086H122.561Z" fill="url(#paint4_linear)"/>
<defs>
<linearGradient id="paint0_linear" x1="164.512" y1="137.233" x2="223.264" y2="137.233" gradientUnits="userSpaceOnUse">
<stop stop-color="#007940"/>
<stop offset="0.2285" stop-color="#00873F"/>
<stop offset="0.7433" stop-color="#40A737"/>
<stop offset="1" stop-color="#5CB531"/>
</linearGradient>
<linearGradient id="paint1_linear" x1="164.506" y1="128.071" x2="223.262" y2="128.071" gradientUnits="userSpaceOnUse">
<stop stop-color="#007940"/>
<stop offset="0.2285" stop-color="#00873F"/>
<stop offset="0.7433" stop-color="#40A737"/>
<stop offset="1" stop-color="#5CB531"/>
</linearGradient>
<linearGradient id="paint2_linear" x1="164.511" y1="118.107" x2="223.265" y2="118.107" gradientUnits="userSpaceOnUse">
<stop stop-color="#007940"/>
<stop offset="0.2285" stop-color="#00873F"/>
<stop offset="0.7433" stop-color="#40A737"/>
<stop offset="1" stop-color="#5CB531"/>
</linearGradient>
<linearGradient id="paint3_linear" x1="32.9702" y1="128.071" x2="92.6318" y2="128.071" gradientUnits="userSpaceOnUse">
<stop stop-color="#1F286F"/>
<stop offset="0.4751" stop-color="#004E94"/>
<stop offset="0.8261" stop-color="#0066B1"/>
<stop offset="1" stop-color="#006FBC"/>
</linearGradient>
<linearGradient id="paint4_linear" x1="98.4276" y1="128.071" x2="156.373" y2="128.071" gradientUnits="userSpaceOnUse">
<stop stop-color="#6C2C2F"/>
<stop offset="0.1735" stop-color="#882730"/>
<stop offset="0.5731" stop-color="#BE1833"/>
<stop offset="0.8585" stop-color="#DC0436"/>
<stop offset="1" stop-color="#E60039"/>
</linearGradient>
</defs>
</svg>

<svg xmlns="http://www.w3.org/2000/svg" xmlns:xlink="http://www.w3.org/1999/xlink" viewBox="0 0 256 256"><defs><style>.cls-1{fill:#fff;}.cls-2{fill:url(#linear-gradient);}.cls-3{fill:#4aa35b;}.cls-4{fill:url(#linear-gradient-2);}.cls-5{fill:#214f9c;}.cls-6{fill:#da3833;}</style><linearGradient id="linear-gradient" x1="454.01" y1="-562.22" x2="512.76" y2="-562.22" gradientTransform="matrix(1, 0, 0, -1, -289.5, -425)" gradientUnits="userSpaceOnUse"><stop offset="0" stop-color="#007940"/><stop offset="0.23" stop-color="#00873f"/><stop offset="0.74" stop-color="#40a737"/><stop offset="1" stop-color="#5cb531"/></linearGradient><linearGradient id="linear-gradient-2" x1="454.01" y1="-543.12" x2="512.76" y2="-543.12" xlink:href="#linear-gradient"/></defs><path class="cls-1" d="M235,177.22a33.26,33.26,0,0,1-33.21,33.21H21.11V78.9a33.25,33.25,0,0,1,33.2-33.2H235V177.22Z"/><path class="cls-2" d="M176.17,143.49H189.9c.39,0,1.31-.13,1.7-.13a6.11,6.11,0,0,0,4.83-6.14,6.35,6.35,0,0,0-4.83-6.15,7,7,0,0,0-1.7-.13H176.17Z"/><path class="cls-3" d="M188.32,56.81A23.79,23.79,0,0,0,164.53,80.6v24.71h33.6a13.48,13.48,0,0,1,2.35.13c7.59.4,13.21,4.32,13.21,11.12,0,5.36-3.79,9.93-10.85,10.85v.26c7.71.52,13.59,4.84,13.59,11.51,0,7.19-6.53,11.89-15.16,11.89H164.4v48.38h34.91a23.8,23.8,0,0,0,23.79-23.8V56.81Z"/><path class="cls-4" d="M194.74,118.12a5.57,5.57,0,0,0-4.84-5.62c-.26,0-.92-.13-1.31-.13H176.17v11.51h12.42a3.68,3.68,0,0,0,1.31-.13,5.58,5.58,0,0,0,4.84-5.63Z"/><path class="cls-5" d="M56.79,56.81A23.79,23.79,0,0,0,33,80.6v58.71c6.67,3.26,13.6,5.36,20.52,5.36,8.24,0,12.69-5,12.69-11.77V105.18H86.6v27.59c0,10.72-6.67,19.48-29.28,19.48a100.27,100.27,0,0,1-24.45-3v50.08H67.78a23.8,23.8,0,0,0,23.79-23.8V56.81Z"/><path class="cls-6" d="M122.56,56.81A23.79,23.79,0,0,0,98.77,80.6v31.12c6-5.1,16.47-8.37,33.33-7.58A106.07,106.07,0,0,1,150.8,107v10.07a45.29,45.29,0,0,0-18-5.23c-12.81-.91-20.53,5.36-20.53,16.34s7.72,17.39,20.53,16.35a47.69,47.69,0,0,0,18-5.23v10.06a103.09,103.09,0,0,1-18.7,2.88c-16.86.79-27.32-2.48-33.33-7.58v54.91h34.9a23.8,23.8,0,0,0,23.8-23.8v-119Z"/></svg>
